public/assets/icons/dna-synthesis.svg

<svg height="48" viewBox="0 0 24 48" width="24" xmlns="http://www.w3.org/2000/svg"><path d="m.449 21.882c.735-4.361 4.422-7.874 10.381-9.89 10.27-3.475 8.909-9.465 8.893-9.525-.199-.804.289-1.618 1.094-1.817.799-.208 1.617.288 1.816 1.093.09.354 2.018 8.741-10.842 13.092-4.793 1.622-7.849 4.372-8.384 7.547-.165.979-.067 1.987.239 2.994h11.854c.828 0 1.5.672 1.5 1.5s-.672 1.5-1.5 1.5h-10.251c.707.918 1.582 1.809 2.651 2.639.654.508.772 1.451.265 2.105-.296.381-.738.58-1.186.58-.321 0-.646-.104-.919-.316-4.243-3.296-6.288-7.488-5.611-11.502zm12.721 14.128c5.959-2.016 9.646-5.527 10.383-9.891.676-4.013-1.369-8.205-5.613-11.5-.654-.509-1.596-.39-2.104.265s-.391 1.597.264 2.104c1.07.831 1.943 1.721 2.65 2.638h-10.815c-.828 0-1.5.672-1.5 1.5s.672 1.5 1.5 1.5h12.418c.307 1.007.404 2.016.24 2.995-.535 3.174-3.592 5.926-8.384 7.547-12.859 4.352-10.931 12.738-10.843 13.092.17.684.782 1.139 1.455 1.139.12 0 .242-.014.363-.045.804-.199 1.293-1.014 1.094-1.818-.016-.061-1.378-6.052 8.892-9.526zm-8.762-24.197c.283.241.629.359.974.359.424 0 .845-.179 1.142-.525.538-.63.464-1.577-.166-2.115-.943-.806-1.671-1.794-2.191-2.925h11.333c.828 0 1.5-.672 1.5-1.5s-.672-1.5-1.5-1.5h-12.163c-.059-.486-.1-.983-.1-1.502 0-.828-.672-1.5-1.5-1.5s-1.5.672-1.5 1.5c.001 4.02 1.443 7.378 4.171 9.708zm15.186 24.376c-.631-.539-1.578-.463-2.115.166-.539.629-.465 1.576.166 2.113.941.807 1.67 1.797 2.189 2.928h-11.078c-.828 0-1.5.672-1.5 1.5s.672 1.5 1.5 1.5h11.906c.059.486.1.982.1 1.502 0 .828.672 1.5 1.5 1.5s1.5-.672 1.5-1.5c0-4.019-1.442-7.377-4.168-9.709z" fill="#142b6f" transform=""/></svg>

<svg width="24px" height="48px" viewBox="0 0 24 48" version="1.1" xmlns="http://www.w3.org/2000/svg" xmlns:xlink="http://www.w3.org/1999/xlink">
    <!-- Generator: Sketch 50.2 (55047) - http://www.bohemiancoding.com/sketch -->
    <desc>Created with Sketch.</desc>
    <defs></defs>
    <g id="Page-1" stroke="none" stroke-width="1" fill="none" fill-rule="evenodd">
        <g id="Desktop" transform="translate(-671.000000, -584.000000)" fill="#142B6F" fill-rule="nonzero">
            <g id="Group-4" transform="translate(441.000000, 584.000000)">
                <g id="Group-2" transform="translate(174.000000, 0.000000)">
                    <g id="icon-dna" transform="translate(56.000000, 0.000000)">
                        <path d="M0.449,21.882 C1.184,17.521 4.871,14.008 10.83,11.992 C21.1,8.517 19.739,2.527 19.723,2.467 C19.524,1.663 20.012,0.849 20.817,0.65 C21.616,0.442 22.434,0.938 22.633,1.743 C22.723,2.097 24.651,10.484 11.791,14.835 C6.998,16.457 3.942,19.207 3.407,22.382 C3.242,23.361 3.34,24.369 3.646,25.376 L15.5,25.376 C16.328,25.376 17,26.048 17,26.876 C17,27.704 16.328,28.376 15.5,28.376 L5.249,28.376 C5.956,29.294 6.831,30.185 7.9,31.015 C8.554,31.523 8.672,32.466 8.165,33.12 C7.869,33.501 7.427,33.7 6.979,33.7 C6.658,33.7 6.333,33.596 6.06,33.384 C1.817,30.088 -0.228,25.896 0.449,21.882 Z M13.17,36.01 C19.129,33.994 22.816,30.483 23.553,26.119 C24.229,22.106 22.184,17.914 17.94,14.619 C17.286,14.11 16.344,14.229 15.836,14.884 C15.328,15.539 15.445,16.481 16.1,16.988 C17.17,17.819 18.043,18.709 18.75,19.626 L7.935,19.626 C7.107,19.626 6.435,20.298 6.435,21.126 C6.435,21.954 7.107,22.626 7.935,22.626 L20.353,22.626 C20.66,23.633 20.757,24.642 20.593,25.621 C20.058,28.795 17.001,31.547 12.209,33.168 C-0.65,37.52 1.278,45.906 1.366,46.26 C1.536,46.944 2.148,47.399 2.821,47.399 C2.941,47.399 3.063,47.385 3.184,47.354 C3.988,47.155 4.477,46.34 4.278,45.536 C4.262,45.475 2.9,39.484 13.17,36.01 Z M4.408,11.813 C4.691,12.054 5.037,12.172 5.382,12.172 C5.806,12.172 6.227,11.993 6.524,11.647 C7.062,11.017 6.988,10.07 6.358,9.532 C5.415,8.726 4.687,7.738 4.167,6.607 L15.5,6.607 C16.328,6.607 17,5.935 17,5.107 C17,4.279 16.328,3.607 15.5,3.607 L3.337,3.607 C3.278,3.121 3.237,2.624 3.237,2.105 C3.237,1.277 2.565,0.605 1.737,0.605 C0.909,0.605 0.237,1.277 0.237,2.105 C0.238,6.125 1.68,9.483 4.408,11.813 Z M19.594,36.189 C18.963,35.65 18.016,35.726 17.479,36.355 C16.94,36.984 17.014,37.931 17.645,38.468 C18.586,39.275 19.315,40.265 19.834,41.396 L8.756,41.396 C7.928,41.396 7.256,42.068 7.256,42.896 C7.256,43.724 7.928,44.396 8.756,44.396 L20.662,44.396 C20.721,44.882 20.762,45.378 20.762,45.898 C20.762,46.726 21.434,47.398 22.262,47.398 C23.09,47.398 23.762,46.726 23.762,45.898 C23.762,41.879 22.32,38.521 19.594,36.189 Z" id="Shape"></path>
                    </g>
                </g>
            </g>
        </g>
    </g>
</svg>
